pk/micro-sd.svg

<svg viewBox="0 0 48 48" fill="none" xmlns="http://www.w3.org/2000/svg" height="1em" width="1em">
  <path d="M13 7C13 5.89543 13.8954 5 15 5H37C38.1046 5 39 5.89543 39 7V41C39 42.1046 38.1046 43 37 43H10C8.89543 43 8 42.1046 8 41V36L13 32V28H8V25L13 19V7Z" fill="#2F88FF" stroke="black" stroke-width="4" stroke-linecap="round" stroke-linejoin="round"/>
  <path d="M32 11V15" stroke="white" stroke-width="4" stroke-linecap="round" stroke-linejoin="round"/>
  <path d="M20 11V15" stroke="white" stroke-width="4" stroke-linecap="round" stroke-linejoin="round"/>
  <path d="M26 11V15" stroke="white" stroke-width="4" stroke-linecap="round" stroke-linejoin="round"/>
</svg>

<svg viewBox="0 0 48 48" fill="none" xmlns="http://www.w3.org/2000/svg" height="1em" width="1em">
  <path d="M13 7a2 2 0 0 1 2-2h22a2 2 0 0 1 2 2v34a2 2 0 0 1-2 2H10a2 2 0 0 1-2-2v-5l5-4v-4H8v-3l5-6V7Z" fill="#2F88FF" stroke="#000" stroke-width="4" stroke-linecap="round" stroke-linejoin="round"/>
  <path d="M32 11v4m-12-4v4m6-4v4" stroke="#fff" stroke-width="4" stroke-linecap="round" stroke-linejoin="round"/>
</svg>
